X:1
T:MIDI from Flute.mid
T:MIDI from Flute.mid
C:Niklas
Z:All Rights Reserved
L:1/8
Q:1/4=120
M:4/4
K:C
V:1 treble nm="Flute" snm="Fl"
%%MIDI program 73
V:1
 d_ed_d =d2 z _B | G_G=GA _BA G2 | z2 d_e d_d=dg | _g=ga_g d2 z2 | %4
 cd_ec G/ z/ _G/ z/ =G/ z/ A/ z/ | AAAd G/ z/ A/ z/ _B/ z/ d/ z/ | _eeec A2 z2 | ddd_B G2 z2 | %8
 GA_Bd gabg | d2 z b abc'a | _g2 z a =gabg | d z d/c/_B/A/ G/ z/ G/ z/ _ec | G z z2 z4 |] %13

